src/actions/16/system-shutdown.svg

<svg xmlns="http://www.w3.org/2000/svg" xmlns:xlink="http://www.w3.org/1999/xlink" width="16px" height="16px" viewBox="0 0 16 16" version="1.1">
<g id="surface1">
<path style=" stroke:none;fill-rule:nonzero;fill:rgb(18.039216%,20.392157%,25.098041%);fill-opacity:1;" d="M 7.273438 2.183594 L 7.273438 7.273438 L 8.726562 7.273438 L 8.726562 2.183594 Z M 6.546875 2.375 C 4.03125 3.019531 2.183594 5.28125 2.183594 8 C 2.183594 11.222656 4.777344 13.816406 8 13.816406 C 11.222656 13.816406 13.816406 11.222656 13.816406 8 C 13.816406 5.28125 11.96875 3.019531 9.453125 2.375 L 9.453125 3.128906 C 11.558594 3.753906 13.089844 5.6875 13.089844 8 C 13.089844 10.820312 10.820312 13.089844 8 13.089844 C 5.179688 13.089844 2.910156 10.820312 2.910156 8 C 2.910156 5.6875 4.441406 3.753906 6.546875 3.128906 Z M 6.546875 2.375 "/>
</g>
</svg>

<svg width="16px" height="16px" version="1.1" viewBox="0 0 16 16" xmlns="http://www.w3.org/2000/svg">
 <path d="m7.2734 2.1836v5.0898h1.4531v-5.0898zm-0.72656 0.19141c-2.5156 0.64453-4.3633 2.9062-4.3633 5.625 0 3.2227 2.5938 5.8164 5.8164 5.8164s5.8164-2.5938 5.8164-5.8164c0-2.7188-1.8477-4.9805-4.3633-5.625v0.75391c2.1055 0.625 3.6367 2.5586 3.6367 4.8711 0 2.8203-2.2695 5.0898-5.0898 5.0898s-5.0898-2.2695-5.0898-5.0898c0-2.3125 1.5312-4.2461 3.6367-4.8711z" fill="#2e3440"/>
</svg>
